X:1354
T:Hins Polska
T:(SvL Närke 241)
S:Efter David Bastviken
S:Efter [[!Erik August Sellin]], Tysslinge, Närke
B:Svenska Låtar Närke
Z:[[http://www.bluerose.karenlmyers.org/IncipitsPolskaNarke1.html|Karen Myers (#2186)]]
Z:Upptecknad 8/1996
M:3/4
L:1/8
R:Polska
O:Tysslinge, Närke
K:A
c2 A2 (E2 | c2) (Bd) c>B | c2 A2 (E2 | c2) (Bd) c>c | e2 d2 (c2 | B2) (AG) E>E |
F2 (GA) B>G | A2 A4 :: A2 (GA) F>G | A2 (AF) (E2 | A2) (GA) F>G |
A2 (AB) c>c | A2 (GA) F>G | A2 (AF) E2- | E(C DB,) CA, | (B,C) A,2 z2 :|
(:musicend:)

(:music:)
